X: 182
T:Bonitatem fecisti cum servo tuo / Manus tue domine
N: Derived from Jos1505-Bonitatem_fecisti_cum_servo_tuo.krn
C: Josquin des Prez
%%abc-version 2.0
%%abcx-abcm2ps-target-version 5.9.1 (29 Sep 2008)
%%abc-creator hum2abc beta
%%abcx-conversion-date 2019/02/12 16:15:46
%%abc-edited-by Jesse Rodin
%%abc-edited-by Joel Chapman 2011/12/27
%%abcx-initial-encoding-date 2012/12/27/
%%humdrum-veritas 1068939625
%%humdrum-veritas-data 2455709616
%%linebreak <none>
%%barnumbers 0
L: 1/4
M: 2/1
Q: 1/2=120
%%staves [1 2 3 4]
V: 1 clef=treble
V: 2 clef=treble-8
V: 3 clef=treble-8
V: 4 clef=bass
K: C
[V:1] z8 | 
[V:2] z8 | 
[V:3] D6D2 | 
[V:4] z8 | 
[V:1] z8 | 
[V:2] z8 | 
[V:3] A4A2B2 | 
[V:4] D,6D,2 | 
[V:1] z8 | 
[V:2] z8 | 
[V:3] c4F4 | 
[V:4] A,4A,2B,2 | 
[V:1] z8 | 
[V:2] z8 | 
[V:3] z2A2A2A2 | 
[V:4] C4F,4 | 
[V:1] z8 | 
[V:2] z8 | 
[V:3] G2F2c4 | 
[V:4] z2A,2A,2A,2 | 
[V:1] z8 | 
[V:2] z8 | 
[V:3] B2A4GF | 
[V:4] G,2F,2C4 | 
[V:1] z8 | 
[V:2] z8 | 
[V:3] G2D2F4 | 
[V:4] B,2A,4G,F, | 
[V:1] z8 | 
[V:2] z8 | 
[V:3] E2F2D2A2 | 
[V:4] G,2D,2F,4 | 
[V:1] z8 | 
[V:2] z8 | 
[V:3] c4B2c2 | 
[V:4] E,2F,2D,2A,2- | 
[V:1] z8 | 
[V:2] z8 | 
[V:3] A2d4^c2 | 
[V:4] A,2G,F,E,4 | 
[V:1] A6A2 | 
[V:2] z8 | 
[V:3] d8 | 
[V:4] D,8 | 
[V:1] A4A4 | 
[V:2] d6d2 | 
[V:3] z8 | 
[V:4] z8 | 
[V:1] _B4A4- | 
[V:2] d4d4 | 
[V:3] z8 | 
[V:4] z8 | 
[V:1] A2A2G2A2- | 
[V:2] f4e2c2 | 
[V:3] z8 | 
[V:4] z8 | 
[V:1] A2GFE4 | 
[V:2] d4c4 | 
[V:3] z8 | 
[V:4] z8 | 
[V:1] F4D2E2- | 
[V:2] A4B2c2- | 
[V:3] z8 | 
[V:4] z8 | 
[V:1] E2C2F4 | 
[V:2] c2A3GAB | 
[V:3] z8 | 
[V:4] z8 | 
[V:1] EFGAGABc | 
[V:2] cdefe2d2- | 
[V:3] z8 | 
[V:4] z8 | 
[V:1] BAA4^G2 | 
[V:2] d2c2B4 | 
[V:3] z8 | 
[V:4] z8 | 
[V:1] A4z2E2 | 
[V:2] z2A2B2c2 | 
[V:3] z8 | 
[V:4] z8 | 
[V:1] F2G2A2F2 | 
[V:2] d2B2c2d2 | 
[V:3] z8 | 
[V:4] z8 | 
[V:1] G2A4D2- | 
[V:2] e2c2f3e | 
[V:3] z8 | 
[V:4] z8 | 
[V:1] DEFGAFG2- | 
[V:2] dcdefde2- | 
[V:3] z8 | 
[V:4] z8 | 
[V:1] GFEDE4 | 
[V:2] eAd4^c2 | 
[V:3] z8 | 
[V:4] z8 | 
[V:1] D4z4 | 
[V:2] d4z4 | 
[V:3] z8 | 
[V:4] z8 | 
[V:1] A6A2 | 
[V:2] f6f2 | 
[V:3] d6d2 | 
[V:4] D,6D,2 | 
[V:1] A4A4 | 
[V:2] f4f4 | 
[V:3] d4d4 | 
[V:4] D,4D,4 | 
[V:1] A6B2 | 
[V:2] e4a4- | 
[V:3] c4f4 | 
[V:4] A,4A,4 | 
[V:1] c2d4^c2 | 
[V:2] a8 | 
[V:3] e8 | 
[V:4] A,8 | 
[V:1] d8 | 
[V:2] f4d4 | 
[V:3] d4f4- | 
[V:4] _B,8 | 
[V:1] z4A4 | 
[V:2] c3de2f2 | 
[V:3] f2edc4 | 
[V:4] A,8 | 
[V:1] B4c4 | 
[V:2] g4e2a2- | 
[V:3] d2e4f2- | 
[V:4] G,4A,4 | 
[V:1] d8 | 
[V:2] a2gfg4 | 
[V:3] fedcd4 | 
[V:4] _B,8 | 
[V:1] c8 | 
[V:2] a8 | 
[V:3] e8 | 
[V:4] A,8 | 
[V:1] d4d2d2 | 
[V:2] a4a2a2 | 
[V:3] f4f2f2 | 
[V:4] D,4D,2D,2 | 
[V:1] c3BA2GF | 
[V:2] a4f4 | 
[V:3] f2edc4 | 
[V:4] F,6E,D, | 
[V:1] E2A2B2c2 | 
[V:2] g2e2f2g2 | 
[V:3] z2c2d2e2 | 
[V:4] C,6C,2 | 
[V:1] A3GA2B2 | 
[V:2] d2a4f2 | 
[V:3] f2c4d2- | 
[V:4] D,2E,2F,2D,2 | 
[V:1] A2c4BA | 
[V:2] f4e2e2- | 
[V:3] d2A3Bc2 | 
[V:4] F,3E,/D,/C,3D, | 
[V:1] G2A4^G2 | 
[V:2] e2d2e4 | 
[V:3] B2A2B4 | 
[V:4] E,2F,2E,4 | 
[V:1] A4c4- | 
[V:2] c4e4- | 
[V:3] A4A4- | 
[V:4] A,,8 | 
[V:1] c4B4 | 
[V:2] e2e2e4- | 
[V:3] A4G4 | 
[V:4] A,,4E,4 | 
[V:1] A8 | 
[V:2] e2dcd4 | 
[V:3] A8 | 
[V:4] F,8 | 
[V:1] !fermata!G8 | 
[V:2] !fermata!e8 | 
[V:3] !fermata!B8 | 
[V:4] !fermata!E,8 | 
[V:1] A4A2A2- | 
[V:2] c4c2f2- | 
[V:3] A4A2d2- | 
[V:4] F,4F,2D,2- | 
[V:1] A2A2A2A2 | 
[V:2] f2f2e2e2 | 
[V:3] d2d2c2c2 | 
[V:4] D,2D,2A,2A,2 | 
[V:1] A4G4 | 
[V:2] c4d2g2- | 
[V:3] f4d4 | 
[V:4] A,4B,4 | 
[V:1] A4A4 | 
[V:2] g2fef2f2 | 
[V:3] e4c4 | 
[V:4] C4A,4 | 
[V:1] B4z2G2 | 
[V:2] g4e4 | 
[V:3] d4z2c2 | 
[V:4] G,4z2C,2 | 
[V:1] G2G2G2G2 | 
[V:2] e2e2d2d2 | 
[V:3] c2c2B2B2 | 
[V:4] C,2C,2G,2G,2 | 
[V:1] A4G4 | 
[V:2] d2A2B2G2 | 
[V:3] A2d4c2 | 
[V:4] F,4E,4 | 
[V:1] F2DEFGAB | 
[V:2] A8- | 
[V:3] d2f4ed | 
[V:4] D,6C,B,, | 
[V:1] c2d4^c2 | 
[V:2] A8 | 
[V:3] e8 | 
[V:4] A,,8 | 
[V:1] d8 | 
[V:2] f4f2f2 | 
[V:3] d8 | 
[V:4] D,8 | 
[V:1] z8 | 
[V:2] e2e2d2cB | 
[V:3] A8 | 
[V:4] z4F,4 | 
[V:1] z8 | 
[V:2] A2d4c2 | 
[V:3] z8 | 
[V:4] F,2F,2E,2E,2 | 
[V:1] z4c4 | 
[V:2] f6ed | 
[V:3] z8 | 
[V:4] D,4A,4 | 
[V:1] c2c2B2B2 | 
[V:2] ecf4e2 | 
[V:3] z8 | 
[V:4] A,2A,2G,2G,2 | 
[V:1] A2GFE4 | 
[V:2] f3gaga2- | 
[V:3] z4A4 | 
[V:4] F,4C4 | 
[V:1] z8 | 
[V:2] agf2ede2 | 
[V:3] A2A2G2G2 | 
[V:4] C2C2B,2B,2 | 
[V:1] z4A4 | 
[V:2] f3ed2cB | 
[V:3] F3GABcd | 
[V:4] A,4F,4 | 
[V:1] A2A2G2G2 | 
[V:2] A4z4 | 
[V:3] c2d4^c2 | 
[V:4] F,2F,2E,2E,2 | 
[V:1] F2EDC4 | 
[V:2] A4A2A2 | 
[V:3] d4z4 | 
[V:4] D,2F,2F,2F,2 | 
[V:1] z4F4 | 
[V:2] G2G2FGA_B | 
[V:3] z8 | 
[V:4] E,2E,2D,E,F,G, | 
[V:1] F2F2E2E2 | 
[V:2] A2d4c2 | 
[V:3] z8 | 
[V:4] F,2D,2A,4 | 
[V:1] D2CB,A,2A2 | 
[V:2] defga2A2 | 
[V:3] f4f2f2 | 
[V:4] D,3E,F,G,A,B, | 
[V:1] G2G2F2A2 | 
[V:2] z2c2A2A2 | 
[V:3] e2e2d2A2 | 
[V:4] C2C,2D,2F,2 | 
[V:1] G2A4GF | 
[V:2] e2e2f2c2- | 
[V:3] B2c2F2A2 | 
[V:4] E,2C,2D,2F,2 | 
[V:1] EDF4E2 | 
[V:2] c2B2c4 | 
[V:3] G2F2G4 | 
[V:4] C,2D,2C,4 | 
[V:1] F8 | 
[V:2] z2c4d2- | 
[V:3] F4z4 | 
[V:4] z4F,4 | 
[V:1] z8 | 
[V:2] d2e4A2- | 
[V:3] z4c4 | 
[V:4] G,4A,4 | 
[V:1] F4G4 | 
[V:2] A2GFc4- | 
[V:3] d4e4 | 
[V:4] D,4z4 | 
[V:1] A4D4 | 
[V:2] c2A2_B2AG | 
[V:3] A4z4 | 
[V:4] F,4G,4 | 
[V:1] z4F4 | 
[V:2] F3GA2F2 | 
[V:3] c4d4 | 
[V:4] A,4D,4 | 
[V:1] G4A4 | 
[V:2] c4c2d2- | 
[V:3] e4A2A2 | 
[V:4] z4F,4 | 
[V:1] D4A4 | 
[V:2] dGd3ef2- | 
[V:3] B4A2d2- | 
[V:4] G,2G,2F,4 | 
[V:1] A2A2B4 | 
[V:2] fec2d2B2 | 
[V:3] dcf4e2 | 
[V:4] D,2A,2G,2G,2 | 
[V:1] A6A2 | 
[V:2] c2d4cB | 
[V:3] f4z2f2 | 
[V:4] F,4D,2D,2- | 
[V:1] d4c4- | 
[V:2] A2a2a2a2 | 
[V:3] f4e2f2- | 
[V:4] D,E,F,G,A,4 | 
[V:1] c2B2A2G2 | 
[V:2] a2gfe2d2 | 
[V:3] fed2c2d2- | 
[V:4] F,2G,2A,2_B,2 | 
[V:1] A4A4 | 
[V:2] e4z4 | 
[V:3] d2^c2d2D2- | 
[V:4] A,4z4 | 
[V:1] z4c4 | 
[V:2] f4f2f2 | 
[V:3] DEFGABc2- | 
[V:4] D,3E,F,G,A,2- | 
[V:1] c2c2B2B2 | 
[V:2] e2e2d4- | 
[V:3] cBG3ABc | 
[V:4] A,G,E,F,G,3F, | 
[V:1] A6GF | 
[V:2] d2cBA2d2- | 
[V:3] d2D3EF2 | 
[V:4] D,3E,F,2D,2 | 
[V:1] E2A4G2 | 
[V:2] d2c2d2B2 | 
[V:3] G2E4D2 | 
[V:4] E,2A,,2B,,4 | 
[V:1] A2F2G3A | 
[V:2] c2d2e4 | 
[V:3] F4E2G2- | 
[V:4] A,,2D,2C,D,E,F, | 
[V:1] _B4A4 | 
[V:2] d4z2d2 | 
[V:3] GA_Bcd2A2 | 
[V:4] G,2G,2D,4- | 
[V:1] z2D2D2F2- | 
[V:2] d2f4d2 | 
[V:3] _B4A4 | 
[V:4] D,8- | 
[V:1] F2D2A2G2 | 
[V:2] a3gf2e2 | 
[V:3] D2F4C2 | 
[V:4] D,4z4 | 
[V:1] F4E2A2 | 
[V:2] d4c2f2 | 
[V:3] D4A4 | 
[V:4] z4z2F,2- | 
[V:1] F2G3FED | 
[V:2] d2e3dd2- | 
[V:3] z8 | 
[V:4] F,2C,2D,4 | 
[V:1] E4D4 | 
[V:2] d2^c2d4- | 
[V:3] A4F4 | 
[V:4] A,,4D,4 | 
[V:1] z8 | 
[V:2] d4z4 | 
[V:3] G4DEFG | 
[V:4] z4A,4 | 
[V:1] z8 | 
[V:2] z8 | 
[V:3] ABcABcd2- | 
[V:4] F,4G,4 | 
[V:1] z8 | 
[V:2] z8 | 
[V:3] d2cBAGc2- | 
[V:4] D,2F,3E,D,C, | 
[V:1] z8 | 
[V:2] z8 | 
[V:3] c2B2c4 | 
[V:4] D,4C,4- | 
[V:1] z8 | 
[V:2] z8 | 
[V:3] z4c4 | 
[V:4] C,4z4 | 
[V:1] z8 | 
[V:2] z8 | 
[V:3] d4d2e2- | 
[V:4] F,4G,4 | 
[V:1] z8 | 
[V:2] z8 | 
[V:3] e2e2c3A | 
[V:4] G,2A,4A,2 | 
[V:1] z8 | 
[V:2] z8 | 
[V:3] A4z2A2- | 
[V:4] F,3D,D,4 | 
[V:1] z8 | 
[V:2] z8 | 
[V:3] A2d4B2- | 
[V:4] z2D,2G,4 | 
[V:1] z8 | 
[V:2] z8 | 
[V:3] B2c4d2 | 
[V:4] E,4F,4 | 
[V:1] z8 | 
[V:2] z8 | 
[V:3] e2c2A2B2 | 
[V:4] G,2A,2F,2D,2 | 
[V:1] z8 | 
[V:2] z8 | 
[V:3] G2A3GAB | 
[V:4] E,2C,2D,E,F,G, | 
[V:1] z8 | 
[V:2] z8 | 
[V:3] cdefedd2- | 
[V:4] A,F,G,3F,D,F, | 
[V:1] z4A4 | 
[V:2] z8 | 
[V:3] d2^c2d4- | 
[V:4] E,4D,4- | 
[V:1] _B2A4GF | 
[V:2] z4A4 | 
[V:3] d4z4 | 
[V:4] D,4z4 | 
[V:1] G2F2c4 | 
[V:2] _B2A4GF | 
[V:3] z8 | 
[V:4] z8 | 
[V:1] _B2A4GF | 
[V:2] G2F2c4 | 
[V:3] z8 | 
[V:4] z8 | 
[V:1] EDG4F2- | 
[V:2] c2_B2A2GF | 
[V:3] z8 | 
[V:4] z8 | 
[V:1] F2E2F4- | 
[V:2] G4F4 | 
[V:3] z8 | 
[V:4] z4A,4 | 
[V:1] F4z4 | 
[V:2] z8 | 
[V:3] z4A4 | 
[V:4] _B,2A,4G,F, | 
[V:1] z8 | 
[V:2] z8 | 
[V:3] _B2A4GF | 
[V:4] G,2F,2C4 | 
[V:1] z8 | 
[V:2] z8 | 
[V:3] G2F2c4 | 
[V:4] _B,2A,4G,F, | 
[V:1] z4c4 | 
[V:2] z8 | 
[V:3] c2_B2A3G/F/ | 
[V:4] E,D,G,4F,2- | 
[V:1] _B4A3B | 
[V:2] z8 | 
[V:3] G4F4 | 
[V:4] F,2E,2F,3G, | 
[V:1] cAd4^c2 | 
[V:2] f4e4 | 
[V:3] z8 | 
[V:4] A,2D,2A,4 | 
[V:1] d4z2D2 | 
[V:2] d3efdg2- | 
[V:3] z4_B4 | 
[V:4] z8 | 
[V:1] E2CDEFG2- | 
[V:2] g2f2g4 | 
[V:3] A4G3A | 
[V:4] z8 | 
[V:1] G2FEF4 | 
[V:2] z2G2A2FG | 
[V:3] _BGc4=B2 | 
[V:4] E,4D,4 | 
[V:1] E3FG2A2- | 
[V:2] ABc4B2 | 
[V:3] c4z2c2 | 
[V:4] C,3D,E,C,F,2- | 
[V:1] A2G2A4- | 
[V:2] B4A4 | 
[V:3] d2e2c2d2- | 
[V:4] F,2E,2F,4 | 
[V:1] A4z4 | 
[V:2] A4d4- | 
[V:3] d2cBA2G2 | 
[V:4] D,3E,F,D,G,2- | 
[V:1] A4B4 | 
[V:2] d4d4 | 
[V:3] A4G4 | 
[V:4] G,2F,2G,4 | 
[V:1] c6BA | 
[V:2] e2g4f2 | 
[V:3] z2e4dc | 
[V:4] E,3F,G,E,A,2- | 
[V:1] d4c2B2 | 
[V:2] d3efef2- | 
[V:3] BAB2A2d2- | 
[V:4] A,2G,2A,2D,2 | 
[V:1] A2G4FE | 
[V:2] fed4c2 | 
[V:3] dcBAG4 | 
[V:4] F,2G,2E,4 | 
[V:1] F4D2A2 | 
[V:2] d3ef2e2- | 
[V:3] A2B3Ac2- | 
[V:4] D,3C,D,2A,,2 | 
[V:1] G2F4ED | 
[V:2] e2dcd3e | 
[V:3] cBA4G2 | 
[V:4] C,2D,2B,,4 | 
[V:1] C3DEFGA | 
[V:2] f2e4dc | 
[V:3] A8 | 
[V:4] A,,8 | 
[V:1] BcA4^G2 | 
[V:2] dec2B4 | 
[V:3] z4d4 | 
[V:4] z8 | 
[V:1] A4d4 | 
[V:2] A4z4 | 
[V:3] c4B4 | 
[V:4] z8 | 
[V:1] c4B4 | 
[V:2] z4g4 | 
[V:3] A4G4 | 
[V:4] z8 | 
[V:1] A4c4 | 
[V:2] f4e4 | 
[V:3] d4A4 | 
[V:4] z8 | 
[V:1] B4A4 | 
[V:2] d4z2A2 | 
[V:3] B3cdcd2- | 
[V:4] G,4F,4 | 
[V:1] G4F2A2- | 
[V:2] B2c2defe | 
[V:3] d2G2A4 | 
[V:4] E,4D,4 | 
[V:1] A2D2G4 | 
[V:2] dcBAGABG | 
[V:3] A4B4 | 
[V:4] F,4E,4 | 
[V:1] E2A4GF | 
[V:2] ABc4B2 | 
[V:3] c4F4 | 
[V:4] C,4D,4 | 
[V:1] E2F4E2 | 
[V:2] c8 | 
[V:3] G8 | 
[V:4] C,8 | 
[V:1] F4z4 | 
[V:2] A8 | 
[V:3] F8 | 
[V:4] z4F,4- | 
[V:1] F6G2 | 
[V:2] z8 | 
[V:3] z4F4- | 
[V:4] F,2G,2A,2B,2 | 
[V:1] A2B2c4 | 
[V:2] c6d2 | 
[V:3] F2G2A2B2 | 
[V:4] C4C,4- | 
[V:1] G6A2 | 
[V:2] e2f2g4 | 
[V:3] c4G4- | 
[V:4] C,2D,2E,2F,2 | 
[V:1] B2c2d4 | 
[V:2] d6e2 | 
[V:3] G2A2B2c2 | 
[V:4] G,4D,4- | 
[V:1] D6E2 | 
[V:2] f2g2a4 | 
[V:3] d4D4- | 
[V:4] D,2E,2F,2G,2 | 
[V:1] F2G2A4- | 
[V:2] d6e2 | 
[V:3] D2E2F2G2 | 
[V:4] A,4D,4- | 
[V:1] A4d4- | 
[V:2] f2g2a4 | 
[V:3] A4D4- | 
[V:4] D,2E,2F,2G,2 | 
[V:1] d4d4 | 
[V:2] f4a4- | 
[V:3] D2E2F2G2 | 
[V:4] A,4D,3E, | 
[V:1] c3BA2G2 | 
[V:2] a2gfe2d2 | 
[V:3] A2B2c2d2- | 
[V:4] F,2G,2A,2B,2 | 
[V:1] A8 | 
[V:2] e2f3ed2- | 
[V:3] d2c2f4 | 
[V:4] A,4D,4 | 
[V:1] _B4A4 | 
[V:2] d2^cB^c4 | 
[V:3] e8 | 
[V:4] G,4A,4 | 
[V:1] F4G2A2 | 
[V:2] d8- | 
[V:3] d6c2 | 
[V:4] _B,6A,2 | 
[V:1] D2A3GFE | 
[V:2] d8- | 
[V:3] _B2A2_B4 | 
[V:4] G,2F,2G,4 | 
[V:1] F8 ||  
[V:2] d8 ||  
[V:3] A8 ||  
[V:4] D,8 ||  
[V:1]  [K:C] [M:2/1]A6A2 | 
[V:2]  [K:C] [M:2/1]f6f2 | 
[V:3]  [K:C] [M:2/1]d6d2 | 
[V:4]  [K:C] [M:2/1]D,6D,2 | 
[V:1] A4A4 | 
[V:2] f4f4 | 
[V:3] d4d4 | 
[V:4] D,4D,4 | 
[V:1] B4B4 | 
[V:2] g4g4- | 
[V:3] d4d4 | 
[V:4] G,4G,4 | 
[V:1] c4c4 | 
[V:2] g4G4 | 
[V:3] e4e4 | 
[V:4] C,4C,4 | 
[V:1] A4G4 | 
[V:2] A2F2G4 | 
[V:3] c4c4 | 
[V:4] F,4E,4 | 
[V:1] F4F4 | 
[V:2] A4a4 | 
[V:3] d4d4 | 
[V:4] D,4D,4 | 
[V:1] _B4B4 | 
[V:2] g4g4 | 
[V:3] d4d4 | 
[V:4] G,4G,4 | 
[V:1] A4A4- | 
[V:2] f4e2f2- | 
[V:3] c8 | 
[V:4] A,8 | 
[V:1] A2GFG4 | 
[V:2] fedcd4 | 
[V:3] d8 | 
[V:4] _B,8 | 
[V:1] A8 | 
[V:2] c8 | 
[V:3] e8 | 
[V:4] A,8- | 
[V:1] A8 | 
[V:2] e8 | 
[V:3] c8 | 
[V:4] A,8- | 
[V:1] A4A4 | 
[V:2] e4e4 | 
[V:3] c4c4 | 
[V:4] A,8 | 
[V:1] A4A4 | 
[V:2] f4f4 | 
[V:3] d4d4 | 
[V:4] D,4D,4 | 
[V:1] G8 | 
[V:2] d8 | 
[V:3] B8 | 
[V:4] G,8 | 
[V:1] G8 | 
[V:2] e8 | 
[V:3] c8 | 
[V:4] C,8 | 
[V:1] G4G4 | 
[V:2] e4e4 | 
[V:3] c4c4 | 
[V:4] C,4C,4 | 
[V:1] F4D4 | 
[V:2] d4f4 | 
[V:3] A4A4 | 
[V:4] D,4D,2D,2 | 
[V:1] A4A4 | 
[V:2] f4e4 | 
[V:3] A6G2 | 
[V:4] F,4C,4 | 
[V:1] A8 | 
[V:2] d8 | 
[V:3] F2E2F4 | 
[V:4] D,8 | 
[V:1] A8- | 
[V:2] c8 | 
[V:3] E8 | 
[V:4] A,,8 | 
[V:1] A8 | 
[V:2] e4f4 | 
[V:3] z4A4 | 
[V:4] A,,8 | 
[V:1] z4E4 | 
[V:2] g4a4 | 
[V:3] B4c4 | 
[V:4] z8 | 
[V:1] F4G4 | 
[V:2] z8 | 
[V:3] d4z4 | 
[V:4] D,4E,4 | 
[V:1] A4z4 | 
[V:2] z4d4 | 
[V:3] A4B2d2- | 
[V:4] F,4G,2B,2 | 
[V:1] z4A4 | 
[V:2] e4f4 | 
[V:3] d2c2d4 | 
[V:4] A,2A,2D,4 | 
[V:1] B4c4 | 
[V:2] g4z4 | 
[V:3] G4A4 | 
[V:4] z8 | 
[V:1] d4z4 | 
[V:2] d4e2g2- | 
[V:3] B4c2G2 | 
[V:4] z8 | 
[V:1] A4B2d2- | 
[V:2] g2f2g2d2 | 
[V:3] d4z4 | 
[V:4] D,4G,2B,2 | 
[V:1] d2c2d2A2 | 
[V:2] e2e2f4 | 
[V:3] z8 | 
[V:4] A,4D,4 | 
[V:1] B2B2c4 | 
[V:2] d2d2e2e2 | 
[V:3] z8 | 
[V:4] G,4C,4 | 
[V:1] A4z4 | 
[V:2] f4d2g2- | 
[V:3] A4B2B2 | 
[V:4] z2D,4E,2 | 
[V:1] z4z2A2- | 
[V:2] g2a4f2- | 
[V:3] c4A4 | 
[V:4] E,2F,4D,2- | 
[V:1] A2B4B2 | 
[V:2] f2edg4 | 
[V:3] d4d2d2 | 
[V:4] D,2G,4G,2 | 
[V:1] B2c2c2c2- | 
[V:2] g2e4a2- | 
[V:3] e2e2c4 | 
[V:4] G,2A,2A,2F,2- | 
[V:1] c2d3cBA | 
[V:2] a2f4g2- | 
[V:3] A4B4 | 
[V:4] F,2D,4E,2- | 
[V:1] G2A4G2- | 
[V:2] g2f2d2e2- | 
[V:3] c4A2B2- | 
[V:4] E,2F,4G,2- | 
[V:1] G2F2G2E2 | 
[V:2] e2d4c2 | 
[V:3] BAA4G2 | 
[V:4] G,F,D,2E,4 | 
[V:1] F3GA4 | 
[V:2] d3ef2d2 | 
[V:3] A4d4 | 
[V:4] D,6C,B,, | 
[V:1] z4d4 | 
[V:2] e4d4 | 
[V:3] c2A2B2B2 | 
[V:4] A,,4z4 | 
[V:1] c2A2B2B2 | 
[V:2] z4g4 | 
[V:3] A4z4 | 
[V:4] z8 | 
[V:1] A4z4 | 
[V:2] f2d2e2e2 | 
[V:3] d4c2A2 | 
[V:4] z8 | 
[V:1] z4A4 | 
[V:2] d2G2A2F2 | 
[V:3] B4A2d2 | 
[V:4] G,4F,2D,2 | 
[V:1] G4F2F2 | 
[V:2] G2G2A2d2 | 
[V:3] d2^c2d2z2 | 
[V:4] E,2E,2D,4 | 
[V:1] E4B4 | 
[V:2] c4B2B2 | 
[V:3] A4G4 | 
[V:4] z8 | 
[V:1] c2A2B2B2 | 
[V:2] A2c3Be2- | 
[V:3] F2F2E2B2 | 
[V:4] A,4G,4 | 
[V:1] A4z4 | 
[V:2] e2d2e4- | 
[V:3] c2A2B2B2 | 
[V:4] F,2F,2E,4 | 
[V:1] G2G2A4 | 
[V:2] e4A4 | 
[V:3] E2E2e4 | 
[V:4] B,4C4 | 
[V:1] B2c4B2 | 
[V:2] z8 | 
[V:3] d2f3ee2 | 
[V:4] B,2A,4G,2 | 
[V:1] A4G4 | 
[V:2] A4B4 | 
[V:3] e2d2e4- | 
[V:4] F,4E,4- | 
[V:1] z2E2F4 | 
[V:2] c4d4 | 
[V:3] e4z4 | 
[V:4] E,4z4 | 
[V:1] G4A4 | 
[V:2] B4A4 | 
[V:3] z8 | 
[V:4] E,4F,4 | 
[V:1] G4E4 | 
[V:2] z2e3dcB | 
[V:3] B4c4 | 
[V:4] G,4A,2A,2 | 
[V:1] A4G2c2- | 
[V:2] A3Bc2G2 | 
[V:3] d4e4 | 
[V:4] F,2F,2E,4 | 
[V:1] cBA4^G2 | 
[V:2] A4e4 | 
[V:3] c4B4 | 
[V:4] z4E,4 | 
[V:1] A4B4 | 
[V:2] c4g4 | 
[V:3] A4d4 | 
[V:4] F,4G,4 | 
[V:1] A4A4- | 
[V:2] e2f3ed2- | 
[V:3] c2d4f2 | 
[V:4] A,2D,2D,4 | 
[V:1] A8- | 
[V:2] d2c2f4- | 
[V:3] e2e2d3c | 
[V:4] A,4z4 | 
[V:1] A4z4 | 
[V:2] f2edc4 | 
[V:3] A4z4 | 
[V:4] D,4A,2A,2 | 
[V:1] D4A2A2 | 
[V:2] z4A4 | 
[V:3] z8 | 
[V:4] G,2G,2F,2F,2 | 
[V:1] G2G2F2F2 | 
[V:2] e2e2d2d2 | 
[V:3] z4D4 | 
[V:4] E,4z4 | 
[V:1] E4E4 | 
[V:2] c2c2B4 | 
[V:3] A2A2G2G2 | 
[V:4] A,,4E,2E,2 | 
[V:1] A8 | 
[V:2] z2A2e2e2 | 
[V:3] F2F2E2A2- | 
[V:4] D,2D,2C,2A,,2 | 
[V:1] z4A4 | 
[V:2] d2d2c2c2 | 
[V:3] A2^G2A4 | 
[V:4] B,,2B,,2A,,B,,C,D, | 
[V:1] G2G2A3B | 
[V:2] B2e4d2 | 
[V:3] z8 | 
[V:4] E,F,G,E,F,4 | 
[V:1] cBc4BA | 
[V:2] e8 | 
[V:3] z4A4 | 
[V:4] E,4A,,4 | 
[V:1] B4E4 | 
[V:2] z8 | 
[V:3] G2G2A3B | 
[V:4] z8 | 
[V:1] A6GF | 
[V:2] z4e4 | 
[V:3] cBc4BA | 
[V:4] z8 | 
[V:1] G4A4 | 
[V:2] d2d2e3f | 
[V:3] B4A2c2- | 
[V:4] z8 | 
[V:1] E4z4 | 
[V:2] gfg4fe | 
[V:3] c2BAB2c2 | 
[V:4] z4E,4 | 
[V:1] A4c4 | 
[V:2] f4e3d | 
[V:3] d4G4 | 
[V:4] D,2D,2E,3F, | 
[V:1] B4G4 | 
[V:2] d2e2B2e2- | 
[V:3] z8 | 
[V:4] G,F,G,4F,E, | 
[V:1] A2A2G2E2- | 
[V:2] e2d2e4 | 
[V:3] A4c4 | 
[V:4] F,4E,4- | 
[V:1] EFG4FE | 
[V:2] z4B4 | 
[V:3] B4G4 | 
[V:4] E,4z4 | 
[V:1] F4E4- | 
[V:2] c4B2c2- | 
[V:3] A2A2G2E2- | 
[V:4] z8 | 
[V:1] E4z4 | 
[V:2] cAB2E2e2- | 
[V:3] EFG4FE | 
[V:4] z8 | 
[V:1] A4G4 | 
[V:2] e2d2e4- | 
[V:3] F4E4 | 
[V:4] z8 | 
[V:1] c4B2A2- | 
[V:2] e4z2e2- | 
[V:3] A4G2c2- | 
[V:4] z8 | 
[V:1] A2GFG2A2 | 
[V:2] e2dcd2e2 | 
[V:3] c2BAB2c2 | 
[V:4] z8 | 
[V:1] F2G3FED | 
[V:2] c2d4D2 | 
[V:3] A2B3Ad2- | 
[V:4] z8 | 
[V:1] E4D4- | 
[V:2] A4z2A2 | 
[V:3] d2^c2d4- | 
[V:4] z4D,4 | 
[V:1] D4z4 | 
[V:2] A2A2B4 | 
[V:3] d4z4 | 
[V:4] D,2D,2G,4 | 
[V:1] z8 | 
[V:2] c2d4cB | 
[V:3] A4A2A2 | 
[V:4] F,4D,4 | 
[V:1] z8 | 
[V:2] A4z4 | 
[V:3] d4c4 | 
[V:4] D,2D,2E,2F,2- | 
[V:1] z8 | 
[V:2] z8 | 
[V:3] A4A2A2 | 
[V:4] F,2E,D,C,2F,2 | 
[V:1] z8 | 
[V:2] z8 | 
[V:3] B2c4BA | 
[V:4] G,2A,4G,F, | 
[V:1] z8 | 
[V:2] z8 | 
[V:3] G4F3G | 
[V:4] _B,4A,3G, | 
[V:1] z8 | 
[V:2] z8 | 
[V:3] A2_B3AGF | 
[V:4] F,E,D,3C,F,2- | 
[V:1] z8 | 
[V:2] z8 | 
[V:3] G4F4 | 
[V:4] F,2E,2F,2D,2 | 
[V:1] z8 | 
[V:2] z8 | 
[V:3] z2A2c2c2 | 
[V:4] F,2F,2F,4 | 
[V:1] z8 | 
[V:2] z8 | 
[V:3] c4B4 | 
[V:4] E,4z2D,2 | 
[V:1] z8 | 
[V:2] z8 | 
[V:3] A4d4 | 
[V:4] D,2F,4D,2 | 
[V:1] z8 | 
[V:2] z8 | 
[V:3] c4B2A2- | 
[V:4] A,4G,2F,2- | 
[V:1] z8 | 
[V:2] z8 | 
[V:3] A2GFG2A2 | 
[V:4] F,2E,D,E,2C,2 | 
[V:1] z8 | 
[V:2] z8 | 
[V:3] F2G2DEFG | 
[V:4] D,2E,2F,2D,E, | 
[V:1] z8 | 
[V:2] z8 | 
[V:3] ABcdefd2- | 
[V:4] F,G,A,F,G,D,F,2 | 
[V:1] z8 | 
[V:2] z4d4- | 
[V:3] d2^c2d2B2 | 
[V:4] E,4D,4- | 
[V:1] z4A4- | 
[V:2] d2d2d4 | 
[V:3] A4D4 | 
[V:4] D,4z4 | 
[V:1] A2A2A4 | 
[V:2] c4d4 | 
[V:3] z8 | 
[V:4] z8 | 
[V:1] G4A4 | 
[V:2] e4d4- | 
[V:3] z8 | 
[V:4] z4D,4- | 
[V:1] _B4A4- | 
[V:2] d4z4 | 
[V:3] z4A4- | 
[V:4] D,2D,2D,4 | 
[V:1] A4z4 | 
[V:2] z8 | 
[V:3] A2A2A4 | 
[V:4] C,4D,4 | 
[V:1] z8 | 
[V:2] z8 | 
[V:3] G4A4 | 
[V:4] E,4D,4- | 
[V:1] z8 | 
[V:2] d4c4 | 
[V:3] _B4A4 | 
[V:4] D,4z4 | 
[V:1] A4G4 | 
[V:2] d4B4 | 
[V:3] z8 | 
[V:4] D,4E,2E,2 | 
[V:1] A4F4 | 
[V:2] A4d4 | 
[V:3] z8 | 
[V:4] F,4D,4 | 
[V:1] E4A4 | 
[V:2] c2c2f4 | 
[V:3] z8 | 
[V:4] A,4F,2F,2 | 
[V:1] G2G2c4 | 
[V:2] e4z2c2 | 
[V:3] z8 | 
[V:4] C6B,A, | 
[V:1] B4z2A2 | 
[V:2] d2e2f2c2 | 
[V:3] z8 | 
[V:4] G,4F,2A,2 | 
[V:1] B4c4 | 
[V:2] d2cBA2c2 | 
[V:3] z8 | 
[V:4] G,4F,2E,2 | 
[V:1] F4G2A2- | 
[V:2] d4e2f2- | 
[V:3] z8 | 
[V:4] D,4z4 | 
[V:1] A2GFEDF2 | 
[V:2] f2edc2d2 | 
[V:3] z8 | 
[V:4] z8 | 
[V:1] E4D4- | 
[V:2] A4z4 | 
[V:3] z8 | 
[V:4] z8 | 
[V:1] D4F4- | 
[V:2] _B6AG | 
[V:3] z8 | 
[V:4] z8 | 
[V:1] F2EDE2C2 | 
[V:2] A2F2c4- | 
[V:3] z8 | 
[V:4] z8 | 
[V:1] G6FE | 
[V:2] c2BAB2G2 | 
[V:3] z8 | 
[V:4] z8 | 
[V:1] F2D2A4 | 
[V:2] d6cB | 
[V:3] z8 | 
[V:4] z8 | 
[V:1] A4z2c2- | 
[V:2] c2A2e4- | 
[V:3] z8 | 
[V:4] z8 | 
[V:1] c2B2A4 | 
[V:2] e4z2c2- | 
[V:3] z8 | 
[V:4] z8 | 
[V:1] G4F4 | 
[V:2] c2B2A4 | 
[V:3] z8 | 
[V:4] z8 | 
[V:1] G2A4GF | 
[V:2] G2F2A2B2 | 
[V:3] z8 | 
[V:4] z8 | 
[V:1] EDG4F2- | 
[V:2] c4A2_B2 | 
[V:3] z8 | 
[V:4] z8 | 
[V:1] F2E2F4- | 
[V:2] G4F4- | 
[V:3] z4c4- | 
[V:4] z8 | 
[V:1] F8- | 
[V:2] F4z4 | 
[V:3] c2c2c4 | 
[V:4] z4F,4- | 
[V:1] F4z4 | 
[V:2] z8 | 
[V:3] d4A4 | 
[V:4] F,2F,2F,4 | 
[V:1] z8 | 
[V:2] z8 | 
[V:3] B4A2d2- | 
[V:4] G,4D,4 | 
[V:1] z8 | 
[V:2] z8 | 
[V:3] d2c2d3c/B/ | 
[V:4] E,4D,2G,2- | 
[V:1] z8 | 
[V:2] z8 | 
[V:3] A4z2d2 | 
[V:4] G,2F,2G,2F,E, | 
[V:1] z8 | 
[V:2] z8 | 
[V:3] f2f2e4 | 
[V:4] D,4z2G,2 | 
[V:1] z8 | 
[V:2] z8 | 
[V:3] d4z2e2- | 
[V:4] _B,2B,2A,4 | 
[V:1] z8 | 
[V:2] z8 | 
[V:3] e2e2c3d | 
[V:4] G,4z2A,2- | 
[V:1] z8 | 
[V:2] z8 | 
[V:3] e2A3Bc2 | 
[V:4] A,2A,2F,3G, | 
[V:1] z8 | 
[V:2] z8 | 
[V:3] F3GA2D2- | 
[V:4] A,2D,3E,F,G, | 
[V:1] z8 | 
[V:2] z8 | 
[V:3] D2d4cB | 
[V:4] A,2D,2F,2G,2 | 
[V:1] z8 | 
[V:2] e4f4 | 
[V:3] c4z4 | 
[V:4] A,4A,,4- | 
[V:1] z8 | 
[V:2] e4d4 | 
[V:3] A4_B4 | 
[V:4] A,,4z4 | 
[V:1] A4_B4 | 
[V:2] c2c2d2e2 | 
[V:3] A4G4 | 
[V:4] z8 | 
[V:1] A4G4 | 
[V:2] f4d4 | 
[V:3] F2F2G2GA | 
[V:4] z8 | 
[V:1] F2F2G2A2 | 
[V:2] z4z2d2 | 
[V:3] _B4G4 | 
[V:4] z2D,2E,2F,2 | 
[V:1] _B4G4 | 
[V:2] d2d2e4 | 
[V:3] z8 | 
[V:4] G,4C,4 | 
[V:1] A4A4 | 
[V:2] c2f4f2 | 
[V:3] c4c2c2- | 
[V:4] F,8 | 
[V:1] A2A2A2A2 | 
[V:2] f2f2c2c2 | 
[V:3] c2c2A2A2 | 
[V:4] F,2F,2F,2F,2 | 
[V:1] A2A2A4 | 
[V:2] d2d2c2d2- | 
[V:3] F3GA2A2- | 
[V:4] D,2D,2F,4 | 
[V:1] G4F4 | 
[V:2] d2c2d2A2- | 
[V:3] A2G2A4 | 
[V:4] E,4F,4 | 
[V:1] c4B2A2- | 
[V:2] ABc2F3G | 
[V:3] e4f4 | 
[V:4] C,4D,3E, | 
[V:1] A2G4F2 | 
[V:2] A2_B4A2- | 
[V:3] d2e4d2- | 
[V:4] F,2G,4D,2 | 
[V:1] G4F4 | 
[V:2] A2G2A4- | 
[V:3] d2^c2d4 | 
[V:4] E,4D,4- | 
[V:1] z4D4 | 
[V:2] A4z4 | 
[V:3] z2A2_B2G2 | 
[V:4] D,4z4 | 
[V:1] D2F3EDC | 
[V:2] z8 | 
[V:3] _B4A4 | 
[V:4] z4D,4 | 
[V:1] D2C2F4- | 
[V:2] z4A4 | 
[V:3] z8 | 
[V:4] D,2F,3E,D,C, | 
[V:1] F2G2A3B | 
[V:2] A2c3BAG | 
[V:3] z8 | 
[V:4] D,2C,2F,4- | 
[V:1] cAd2c2A2- | 
[V:2] A2G2c3d | 
[V:3] z8 | 
[V:4] F,2G,2A,3B, | 
[V:1] A2B4A2- | 
[V:2] e2f4e2- | 
[V:3] z8 | 
[V:4] C2D3CA,2 | 
[V:1] A2^G2A4 | 
[V:2] e2d2e4 | 
[V:3] z8 | 
[V:4] B,4A,4 | 
[V:1] z4A4 | 
[V:2] z2f4f2 | 
[V:3] z8 | 
[V:4] z2D4D2 | 
[V:1] A2A2G2F2- | 
[V:2] e4d2c2- | 
[V:3] z8 | 
[V:4] C4B,2A,2- | 
[V:1] F2EDC2D2- | 
[V:2] c2BAG2A2- | 
[V:3] z8 | 
[V:4] A,2G,F,E,D,F,2 | 
[V:1] D2^C2D2A2- | 
[V:2] A2G2A4 | 
[V:3] z8 | 
[V:4] E,4D,4- | 
[V:1] A2A2G2G2 | 
[V:2] F4G4 | 
[V:3] d4B4 | 
[V:4] D,4z4 | 
[V:1] E4A4 | 
[V:2] A4D2A2 | 
[V:3] c4d4 | 
[V:4] A,4F,4 | 
[V:1] D4A4 | 
[V:2] B2d4^c2 | 
[V:3] z8 | 
[V:4] G,4A,4 | 
[V:1] F4G4 | 
[V:2] d4e4 | 
[V:3] d4B4 | 
[V:4] D,4G,4 | 
[V:1] A8 | 
[V:2] f8 | 
[V:3] c4d4 | 
[V:4] F,4D,4 | 
[V:1] B4B2B2- | 
[V:2] g4g2g2- | 
[V:3] d4d2d2- | 
[V:4] G,4G,2G,2- | 
[V:1] B2B2B4- | 
[V:2] g2g2g4- | 
[V:3] d2d2d4- | 
[V:4] G,2G,2G,4- | 
[V:1] B4A4 | 
[V:2] g4f3e | 
[V:3] d4d4 | 
[V:4] G,4D,4- | 
[V:1] d4c4 | 
[V:2] d2cBA4 | 
[V:3] f6e2 | 
[V:4] D,4A,4 | 
[V:1] B2A4GF | 
[V:2] z8 | 
[V:3] e6dc | 
[V:4] A,4_B,4- | 
[V:1] G4A4- | 
[V:2] z2d4cB | 
[V:3] d4e4 | 
[V:4] B,4A,4- | 
[V:1] A4z4 | 
[V:2] c4f4 | 
[V:3] z2A4B2- | 
[V:4] A,4D,4 | 
[V:1] G4A4 | 
[V:2] e3dcBA2 | 
[V:3] B2c4d2- | 
[V:4] E,4F,4 | 
[V:1] B4c4 | 
[V:2] G2g3fed | 
[V:3] d2G4c2- | 
[V:4] G,4C,4 | 
[V:1] A4d4- | 
[V:2] c4f4- | 
[V:3] cBAGFEA2- | 
[V:4] F,3E,D,2C,2 | 
[V:1] d4c4 | 
[V:2] f2edf2e2- | 
[V:3] A2^G2A4- | 
[V:4] B,,4A,,4- | 
[V:1] A3Bc2d2- | 
[V:2] e2a4gf | 
[V:3] A8- | 
[V:4] A,,8- | 
[V:1] d2^c2d4- | 
[V:2] e4d4 | 
[V:3] A4z4 | 
[V:4] A,,4D,4- | 
[V:1] d4c4 | 
[V:2] f6e2 | 
[V:3] A8 | 
[V:4] D,2E,2F,4 | 
[V:1] B4A4 | 
[V:2] d3efef2- | 
[V:3] B4c4 | 
[V:4] G,4A,4 | 
[V:1] G4A4- | 
[V:2] f2edc4 | 
[V:3] d4e4 | 
[V:4] _B,4A,4 | 
[V:1] A8- | 
[V:2] d4A4 | 
[V:3] f6e2 | 
[V:4] D,8 | 
[V:1] A8 |]  
[V:2] f4e4 |]  
[V:3] d3^c/B/^c4 |]  
[V:4] A,8 |]  



